gem-puzzle/assets/puzzle.svg

<svg enable-background="new 0 0 512 512" fill="#fafafa" viewBox="0 0 512 512" xmlns="http://www.w3.org/2000/svg"><path d="m498.162 0h-242.162-242.162c-7.643 0-13.838 6.195-13.838 13.838v242.162 242.162c0 7.643 6.195 13.838 13.838 13.838h242.162 242.162c7.643 0 13.838-6.195 13.838-13.838v-242.162-242.162c0-7.643-6.195-13.838-13.838-13.838zm-470.486 27.676h214.487v48.432h-17.297c-32.429 0-58.811 26.382-58.811 58.811s26.382 58.811 58.811 58.811h17.297v48.432h-62.27c-7.643 0-13.838 6.195-13.838 13.838v31.135c0 17.169-13.967 31.135-31.135 31.135-17.169 0-31.135-13.966-31.135-31.135v-31.135c0-7.643-6.195-13.838-13.838-13.838h-62.27v-214.486zm214.486 394.378v62.27h-214.486v-214.486h48.432v17.297c0 32.429 26.382 58.811 58.811 58.811s58.811-26.382 58.811-58.811v-17.297h48.432v62.27c0 7.643 6.195 13.838 13.838 13.838h31.135c17.169 0 31.135 13.966 31.135 31.135s-13.966 31.135-31.135 31.135h-31.135c-7.643 0-13.838 6.195-13.838 13.838zm242.162 62.27h-214.486v-48.432h17.297c32.429 0 58.811-26.382 58.811-58.811s-26.382-58.811-58.811-58.811h-17.297v-48.432h62.27c7.643 0 13.838-6.195 13.838-13.838v-31.135c0-17.169 13.966-31.135 31.135-31.135s31.135 13.967 31.135 31.135v31.135c0 7.643 6.195 13.838 13.838 13.838h62.27zm0-242.162h-48.432v-17.297c0-32.429-26.382-58.811-58.811-58.811s-58.811 26.382-58.811 58.811v17.297h-48.432v-62.27c0-7.643-6.195-13.838-13.838-13.838h-31.135c-17.169 0-31.135-13.967-31.135-31.135 0-17.169 13.967-31.135 31.135-31.135h31.135c7.643 0 13.838-6.195 13.838-13.838v-62.27h214.487v214.486z"/></svg>

<?xml version="1.0" encoding="iso-8859-1"?>
<!-- Generator: Adobe Illustrator 19.0.0, SVG Export Plug-In . SVG Version: 6.00 Build 0)  -->
<svg version="1.1" id="Layer_1" xmlns="http://www.w3.org/2000/svg" xmlns:xlink="http://www.w3.org/1999/xlink" x="0px" y="0px"
	 viewBox="0 0 512 512" fill= "#fafafa" style="enable-background:new 0 0 512 512;" xml:space="preserve">
<g>
	<g>
		<path d="M498.162,0H256H13.838C6.195,0,0,6.195,0,13.838V256v242.162C0,505.805,6.195,512,13.838,512H256h242.162
			c7.643,0,13.838-6.195,13.838-13.838V256V13.838C512,6.195,505.805,0,498.162,0z M27.676,27.676h214.487v48.432h-17.297
			c-32.429,0-58.811,26.382-58.811,58.811c0,32.429,26.382,58.811,58.811,58.811h17.297v48.432h-62.27
			c-7.643,0-13.838,6.195-13.838,13.838v31.135c0,17.169-13.967,31.135-31.135,31.135c-17.169,0-31.135-13.966-31.135-31.135V256
			c0-7.643-6.195-13.838-13.838-13.838h-62.27V27.676z M242.162,422.054v62.27H27.676V269.838h48.432v17.297
			c0,32.429,26.382,58.811,58.811,58.811c32.429,0,58.811-26.382,58.811-58.811v-17.297h48.432v62.27
			c0,7.643,6.195,13.838,13.838,13.838h31.135c17.169,0,31.135,13.966,31.135,31.135c0,17.169-13.966,31.135-31.135,31.135H256
			C248.357,408.216,242.162,414.411,242.162,422.054z M484.324,484.324H269.838v-48.432h17.297
			c32.429,0,58.811-26.382,58.811-58.811c0-32.429-26.382-58.811-58.811-58.811h-17.297v-48.432h62.27
			c7.643,0,13.838-6.195,13.838-13.838v-31.135c0-17.169,13.966-31.135,31.135-31.135c17.169,0,31.135,13.967,31.135,31.135V256
			c0,7.643,6.195,13.838,13.838,13.838h62.27V484.324z M484.324,242.162h-48.432v-17.297c0-32.429-26.382-58.811-58.811-58.811
			c-32.429,0-58.811,26.382-58.811,58.811v17.297h-48.432v-62.27c0-7.643-6.195-13.838-13.838-13.838h-31.135
			c-17.169,0-31.135-13.967-31.135-31.135c0-17.169,13.967-31.135,31.135-31.135H256c7.643,0,13.838-6.195,13.838-13.838v-62.27
			h214.487V242.162z"/>
	</g>
</g>
<g>
</g>
<g>
</g>
<g>
</g>
<g>
</g>
<g>
</g>
<g>
</g>
<g>
</g>
<g>
</g>
<g>
</g>
<g>
</g>
<g>
</g>
<g>
</g>
<g>
</g>
<g>
</g>
<g>
</g>
</svg>
